X:906
T:Wests
R:Hornpipe
B:The Athole Collection
M:C|
L:1/8
K:D
A2|d2 FG AFAF|d2 FG AFAF|BAGF E2 ef|gfed cABc|d2 FG AFAF|
D2 FG AFAF|BAGF E2 eg|fdec d2:|
|:de|f2 df dfdf|e2 ce cece|f2 df dfdf|edcB A2 Bc|dBdB cAcA|
dBdB cAcA|afge fdec|d2 d2 d2:|

